X:623
T:Dermot My Treasure.
R:air
T:diarmuid mo stor.
Z:Tempo: With feeling
M:3/4
L:1/8
K:G
D2|B4 AG|A4 GE|DB,3 D2|EG2 G2 D|
D4 ED|d4 cB|PB2 PA2 PG2|PF2 PE2 PDD|
B4 AG|A4 GE|D B,3 D2|E G3 GA|
B2 G2 e2|d B3 G2|D3 E G2|PG4 EF|
PG4 PFE|G F2 F2 G|PE2 PD2 PC2|B,C B,2 EF|
G4 FE|B4 cB|B3 A PGA|B4 B2|
B3 A PGF|A3 G FE|E2 D3 C|C B,3 DD|
E3 F GA|B2 d3 c|B3 A GG/4B/4A/|G4 D2|
B3 A GA|G4 DB,|B3 A GA|B d3 B2|
B4 AG|G4 FE|D4 DC|B,4 DD|
B3 A GA|G4 DG|B3 A GA|c B3 AG|
G3 F FAGE|D B,3 D2|E2 G2 GBA2|G4 z2||
